src/extensions/common/nowrap/icon.svg

<svg viewBox="0 0 24 24" fill="none" xmlns="http://www.w3.org/2000/svg">
<path d="M4 11.8841V4H5.5L5.5 11.5058L5.03262 11.5076L5.02793 11.5076C4.64577 11.5087 4.28345 11.6466 4 11.8841Z"/>
<path d="M11.9472 16.1173L12.7645 16.9346L17.7258 11.9733L12.7645 7.01197L11.7381 8.03844L14.9471 11.2475L6.72578 11.2477L6.72579 11.5011L7.0216 11.5C7.86922 11.5 8.39961 12.0635 8.56713 12.6993L14.947 12.6991L12.4812 15.165C12.4314 15.4622 12.2944 15.7534 12.0553 16.0035L11.9472 16.1173Z" />
<path d="M20.0793 4V20H18.5793L18.5793 4H20.0793Z"/>
<path d="M10.8895 14.778L7.62346 14.7856C7.57942 14.7856 7.53538 14.8159 7.5207 14.8615L7.27116 15.5833C7.24915 15.6593 7.30052 15.7353 7.37392 15.7353H8.64364C8.73905 15.7353 8.79043 15.8569 8.72437 15.9253L6.69869 18.1059H6.70603L7.74823 21.5022C7.77025 21.5782 7.71887 21.6465 7.64548 21.6465H6.62529C6.57392 21.6465 6.53722 21.6162 6.52254 21.5706L6.00144 19.8306C5.97208 19.7242 5.83264 19.7242 5.79594 19.823L5.37025 21.0463C5.36291 21.0691 5.36291 21.0919 5.37025 21.1147L5.75924 22.5963C5.77392 22.6419 5.81796 22.6799 5.86199 22.6799H9.15006C9.22345 22.6799 9.27483 22.6039 9.25281 22.5355L7.92437 18.2578C7.90969 18.2198 7.92437 18.1743 7.95373 18.1439L10.9702 14.9679C11.0363 14.8995 10.9849 14.778 10.8895 14.778Z"/>
<path d="M7.02164 13L5.03265 13.0076C4.98862 13.0076 4.94458 13.038 4.9299 13.0836L4.67302 13.8054C4.64366 13.8814 4.70238 13.9573 4.77577 13.9573H5.61247C5.68586 13.9573 5.73724 14.0333 5.71522 14.1093L3.34458 20.8259C3.30789 20.9247 3.17578 20.9247 3.13908 20.8259L1.43633 15.9784C1.40697 15.9024 1.46569 15.8265 1.53908 15.8265H2.3978C2.44183 15.8265 2.48587 15.8568 2.50055 15.9024L3.11706 17.65C3.15376 17.7487 3.28587 17.7487 3.32257 17.65L4.27669 14.9299C4.30605 14.8539 4.24733 14.7779 4.17394 14.7779H0.107895C0.0345005 14.7779 -0.0168755 14.8539 0.0051428 14.9299L3.13174 23.9259C3.16844 24.0247 3.30055 24.0247 3.33724 23.9259L7.12439 13.152C7.14641 13.076 7.09503 13 7.02164 13Z" fill="#D8141C"/>
</svg>

<svg xmlns="http://www.w3.org/2000/svg" viewBox="0 0 24 24"><path d="M4 11.884V4h1.5v7.506l-.467.002h-.005A1.609 1.609 0 0 0 4 11.884ZM11.947 16.117l.818.818 4.96-4.962-4.96-4.961-1.027 1.026 3.21 3.21H6.725v.253l.296-.001c.847 0 1.378.563 1.545 1.2h6.38l-2.466 2.465c-.05.297-.187.588-.426.838l-.108.114ZM20.08 4v16h-1.5V4h1.5Z"/><path d="m10.89 14.778-3.267.008a.11.11 0 0 0-.102.075l-.25.722c-.022.076.03.152.103.152h1.27c.095 0 .146.122.08.19L6.7 18.105h.007l1.042 3.397c.022.076-.03.145-.103.145h-1.02a.104.104 0 0 1-.102-.076L6 19.83c-.029-.107-.168-.107-.205-.008l-.426 1.223a.109.109 0 0 0 0 .069l.39 1.481c.014.046.058.084.102.084H9.15c.073 0 .125-.076.103-.145l-1.329-4.277c-.014-.038 0-.084.03-.114l3.016-3.176c.066-.069.015-.19-.08-.19Z"/><path fill="#D8141C" d="m7.022 13-1.99.008a.11.11 0 0 0-.102.076l-.257.721c-.03.076.03.152.103.152h.836c.074 0 .125.076.103.152l-2.37 6.717a.108.108 0 0 1-.206 0l-1.703-4.848a.112.112 0 0 1 .103-.152h.859a.11.11 0 0 1 .103.076l.616 1.748a.108.108 0 0 0 .206 0l.954-2.72a.112.112 0 0 0-.103-.152H.108c-.073 0-.125.076-.103.152l3.127 8.996a.108.108 0 0 0 .205 0l3.787-10.774c.022-.076-.029-.152-.102-.152Z"/></svg>
